logo/poeditor.svg

<?xml version="1.0" encoding="UTF-8"?>
<svg width="256px" height="207px" viewBox="0 0 256 207" version="1.1" xmlns="http://www.w3.org/2000/svg" xmlns:xlink="http://www.w3.org/1999/xlink" preserveAspectRatio="xMidYMid">
		<g>
				<rect fill="#FFFFFF" transform="translate(116.198291, 91.688231) scale(-1, 1) rotate(-180.000000) translate(-116.198291, -91.688231) " x="59.9147438" y="19.9720987" width="112.567094" height="143.432266"></rect>
				<path d="M61.2673646,206.978723 L7.10542736e-15,206.978723 L7.10542736e-15,180.846817 C7.10542736e-15,136.951097 35.5494147,103.48962 79.3961136,103.48962 L152.528413,103.48962 C163.549095,103.48962 172.481838,112.44052 172.481838,123.472095 L172.481838,148.563664 L138.475682,148.563664 C103.216763,148.563664 68.4062971,173.513616 61.2673646,206.978723" fill="#24C1CE" transform="translate(86.240919, 155.234172) scale(-1, 1) rotate(-180.000000) translate(-86.240919, -155.234172) "></path>
				<path d="M59.9147438,12.5517485 C59.9147438,52.1499474 98.9246889,83.5180391 138.475682,83.5180391 L172.481838,83.5180391 C172.476392,94.5441676 163.549095,103.48962 152.524782,103.48962 L79.3961136,103.48962 C35.5494147,103.48962 0,70.0335906 0,26.1324237 L0,0.000517446809 L61.2673646,0.000517446809 C60.3995086,4.07108883 59.9147438,8.2614897 59.9147438,12.5517485" fill="#3DD0AD" transform="translate(86.240919, 51.745069) scale(-1, 1) rotate(-180.000000) translate(-86.240919, -51.745069) "></path>
				<path d="M123.460684,74.4400477 C113.433135,74.4400477 105.304701,66.3152453 105.304701,56.2840647 C105.304701,46.2619621 113.433135,38.1280817 123.460684,38.1280817 C133.486418,38.1280817 141.616667,46.2619621 141.616667,56.2840647 C141.616667,66.3152453 133.486418,74.4400477 123.460684,74.4400477" fill="#404953" transform="translate(123.460684, 56.284065) scale(-1, 1) rotate(-180.000000) translate(-123.460684, -56.284065) "></path>
				<path d="M116.198291,54.4684664 C113.195291,54.4684664 110.751496,52.0264867 110.751496,49.0271183 C110.751496,46.0223031 113.195291,43.5748766 116.198291,43.5748766 C119.201291,43.5748766 121.645086,46.0223031 121.645086,49.0271183 C121.645086,52.0264867 119.201291,54.4684664 116.198291,54.4684664" fill="#FFFFFF" transform="translate(116.198291, 49.021671) scale(-1, 1) rotate(-180.000000) translate(-116.198291, -49.021671) "></path>
				<polygon fill="#404953" transform="translate(126.184082, 94.411629) scale(-1, 1) rotate(-180.000000) translate(-126.184082, -94.411629) " points="101.673505 87.1492357 150.694659 87.1492357 150.694659 101.674022 101.673505 101.674022"></polygon>
				<path d="M32.6844006,121.645603 C22.662298,121.645603 14.5284176,113.508092 14.5284176,103.485989 C14.5247864,93.4638866 22.6586668,85.3336374 32.6807694,85.3336374 C42.7065032,85.3336374 50.8367523,93.4675178 50.8367523,103.485989 C50.8367523,113.508092 42.7083188,121.645603 32.6807694,121.645603" fill="#FFDA00" transform="translate(32.682584, 103.489620) scale(-1, 1) rotate(-180.000000) translate(-32.682584, -103.489620) "></path>
				<path d="M230.541041,155.769773 C214.436684,171.87413 193.579091,180.323925 172.481838,181.146391 L172.481838,90.9111554 L230.541041,32.851953 C264.485466,66.7945632 264.485466,121.827163 230.541041,155.767958 L230.541041,155.769773 Z M172.481838,63.1325015 L172.481838,19.9720987 C183.789384,20.5839553 194.958945,24.2387547 204.657871,30.9564684 L172.481838,63.1325015 Z" fill="#404953" transform="translate(214.240599, 100.559245) scale(-1, 1) rotate(-180.000000) translate(-214.240599, -100.559245) "></path>
				<path d="M61.2673646,187.007295 L59.9147438,187.007295 L59.9147438,127.865996 C59.9147438,114.350682 70.870064,103.442568 84.3853777,103.489773 L172.481838,103.820212 L172.481838,128.592235 L138.475682,128.592235 C103.216763,128.592235 68.4062971,153.542187 61.2673646,187.007295" fill="#3A4287" transform="translate(116.198291, 145.248458) scale(-1, 1) rotate(-180.000000) translate(-116.198291, -145.248458) "></path>
		</g>
</svg>

<svg viewBox="0 0 256 207" xmlns="http://www.w3.org/2000/svg"><path fill="#FFF" d="M59.91 19.97h112.56V163.4H59.9Z" transform="translate(1.42109e-14 183.376) scale(1-1)"/><path fill="#24C1CE" d="M61.26 206.97H-.01v-26.14c0-43.9 35.54-77.36 79.39-77.36h73.13c11.02 0 19.95 8.95 19.95 19.98v25.09h-34.01c-35.26 0-70.07 24.94-77.21 58.41" transform="translate(1.42109e-14 310.468) scale(1-1)"/><path fill="#3DD0AD" d="M59.91 12.55c0 39.59 39 70.96 78.56 70.96h34c-.01 11.02-8.94 19.97-19.96 19.97H79.38c-43.85 0-79.4-33.46-79.4-77.36V-.02h61.26c-.87 4.07-1.36 8.26-1.36 12.55" transform="translate(0 103.49) scale(1-1)"/><path fill="#404953" d="M123.46 74.44c-10.03 0-18.16-8.13-18.16-18.16s8.12-18.16 18.15-18.16c10.02 0 18.15 8.13 18.15 18.15 0 10.03-8.14 18.15-18.16 18.15" transform="translate(0 112.568) scale(1-1)"/><path fill="#FFF" d="M116.19 54.46c-3.003 0-5.45-2.45-5.45-5.45 0-3.01 2.44-5.46 5.44-5.46 3 0 5.44 2.44 5.44 5.45 0 2.99-2.45 5.44-5.45 5.44" transform="translate(0 98.0433) scale(1-1)"/><path fill="#404953" d="M101.67 87.14l49.02 0 0 14.52 -49.03 0Z" transform="translate(1.42109e-14 188.823) scale(1-1)"/><path fill="#FFDA00" d="M32.68 121.64c-10.03 0-18.16-8.14-18.16-18.16 -.01-10.03 8.13-18.16 18.15-18.16 10.02 0 18.15 8.13 18.15 18.15 0 10.02-8.13 18.15-18.16 18.15" transform="translate(1.42109e-14 206.979) scale(1-1)"/><path fill="#404953" d="M230.54 155.76c-16.11 16.1-36.97 24.55-58.06 25.37V90.89l58.05-58.06c33.94 33.94 33.94 88.97 0 122.91v0Zm-58.06-92.64V19.95c11.3.61 22.47 4.26 32.17 10.98L172.47 63.1Z" transform="translate(0 201.118) scale(1-1)"/><path fill="#3A4287" d="M61.26 187H59.9v-59.15c0-13.52 10.95-24.43 24.47-24.38l88.09.33v24.77h-34.01c-35.26 0-70.07 24.94-77.21 58.41" transform="translate(1.42109e-14 290.497) scale(1-1)"/></svg>
